X: 1951
T: Arrival Of The Queen Of Sheba, The
R: reel
M: 4/4
K: Gmajor
gdBd gdBd gdBd gdBd|Agfe dcBA BGAB cdef|gdBd gdBd g^cAc geAe|
fede A2^c2 d2AB ABAB|AFDF AFDF dBGB dBGB|cAFA cAFA BDEF GABc|
dBGB dBGB dAFA dAFA|BGEG BGEG BAdA BAdA|gece gece gdBd gdBd|
cded cBAG AGFG FEDc|BDcE DFEG FAGB AcBd|cdcd edcB ABAB cdcd|
eded cBcB ABAB cdcd|eded cBcB ABAB cBcA|Bdce dfeg f2ed g2c2|
B2AG D2F2 G2G2 G4|GABc B2A2 G2d4 c2|B2cB c2A2 Bcde d2c2|
B2cB c2A2 B2A2 G4|gdBd gdBd gdBd gdBd|Agfe dcBA BGAB G4|
d4 edcB c2e4 e2|dcBd cBAc B2d4 d2|
cBAc BAGB A2d2 FGAB|A2d2 FGAB A2d2d2d2|
dAFA dAFA dAFA dAdf|ed^cB AGFE FDEF GABc|
d2 (3efg fe dA AG|F2 EFGE FGAB A^c|d2 eg fe d^c A2|
AFDF AFDF GE^cE GE^cE|fdAd fdAd e^cA^c e^cA^c|
dAFA dAFA dBGB dBGB|AB^cd ed^cB =c4|
feed gffe fgfe fedc|dedc dcBA cdcB cBAG|BcBA BAGF GAGF GFED|
Bcde dc Bd dc|B2 AB cA BA GB/d/|gdBd gdBd gdBd gdBd|
Agfe dcBA BGAB GB|cBBA dccB cdcB cBAc|BcBA BAGB GABc BA|
G2 g=f e2 de eBGB|eBGB eBGB eBGB eBGB|eded cBcB ABAB cdcd|
e4z4 ecAc ecAc|d4z4 dBGB dBGB|c4z4 cAFA cAFA|
B4z4 eBGB eBGB|^d4z4 BGEG BGEG|c4z4 f^dBd fdBd|
eBGB eBGB e2dc B2A2|G4F4 E4z4|
gdBd gdBd gdBd gdBd|Agfe dcBA BGAB G4|
d4 edcB c2e4 e2|dcBd cBAc B2d4 d2|
cBAc BAGB A2d2 FGAB|A2d2 FGAB A2d2d2d2|
dAFA dAFA dAFA dAdf|ed^cB AGFE FDEF GABc|
d2 (3efg fe dA AG|F2 EFGE FGAB A^c|d2 eg fe d^c A2|
AFDF AFDF GE^cE GE^cE|fdAd fdAd e^cA^c e^cA^c|
dAFA dAFA dBGB dBGB|AB^cd ed^cB =c4|
feed gffe fgfe fedc|dedc dcBA cdcB cBAG|BcBA BAGF GAGF GFED|
Bcde dc Bd dc|B2 AB cA BA GB/d/|gdBd gdBd gdBd gdBd|
Agfe dcBA BGAB GB|cBBA dccB cdcB cBAc|BcBA BAGB GABc BA|
G2 g=f e2 de eBGB|eBGB eBGB eBGB eBGB|eded cBcB ABAB cdcd|
e4z4 ecAc ecAc|d4z4 dBGB dBGB|c4z4 cAFA cAFA|
B4z4 eBGB eBGB|^d4z4 BGEG BGEG|c4z4 f^dBd fdBd|
eBGB eBGB e2dc B2A2|G4F4 E4z4|

